source/images/icons/starts.svg

<svg width="116" height="25" viewBox="0 0 116 25" fill="none" xmlns="http://www.w3.org/2000/svg">
<path d="M11.55 0L14.1431 8.50899H22.5347L15.7458 13.7678L18.3389 22.2768L11.55 17.018L4.76108 22.2768L7.35421 13.7678L0.565296 8.50899H8.95685L11.55 0Z" fill="#FF3131"/>
<path d="M34.65 0L37.2431 8.50899H45.6347L38.8457 13.7678L41.4389 22.2768L34.65 17.018L27.8611 22.2768L30.4542 13.7678L23.6653 8.50899H32.0568L34.65 0Z" fill="#FF3131"/>
<path d="M57.7501 0L60.3432 8.50899H68.7348L61.9458 13.7678L64.539 22.2768L57.7501 17.018L50.9611 22.2768L53.5543 13.7678L46.7654 8.50899H55.1569L57.7501 0Z" fill="#FF3131"/>
<path d="M80.85 0L83.4432 8.50899H91.8347L85.0458 13.7678L87.6389 22.2768L80.85 17.018L74.0611 22.2768L76.6543 13.7678L69.8653 8.50899H78.2569L80.85 0Z" fill="#FF3131"/>
<path d="M103.95 0L106.543 8.50899H114.935L108.146 13.7678L110.739 22.2768L103.95 17.018L97.161 22.2768L99.7541 13.7678L92.9652 8.50899H101.357L103.95 0Z" fill="#FF3131"/>
</svg>

<svg viewBox="0 0 116 25" fill="none" xmlns="http://www.w3.org/2000/svg"><path d="m11.55 0 2.6 8.5h8.38l-6.78 5.27 2.59 8.5-6.79-5.25-6.79 5.26 2.6-8.51-6.8-5.26h8.4l2.59-8.51Zm23.1 0 2.6 8.5h8.38l-6.78 5.27 2.59 8.5-6.79-5.25-6.79 5.26 2.6-8.51-6.8-5.26h8.4l2.59-8.51Zm23.1 0 2.6 8.5h8.38l-6.78 5.27 2.59 8.5-6.79-5.25-6.79 5.26 2.6-8.51-6.8-5.26h8.4l2.59-8.51Zm23.1 0 2.6 8.5h8.38l-6.78 5.27 2.59 8.5-6.79-5.25-6.79 5.26 2.6-8.51-6.8-5.26h8.4l2.59-8.51Zm23.1 0 2.6 8.5h8.39l-6.8 5.27 2.6 8.5-6.79-5.25-6.79 5.26 2.6-8.51-6.8-5.26h8.4l2.59-8.51Z" fill="#FF3131"/></svg>
